static/images/wave-transition1ALT.svg

<svg height="417.6" viewBox="4.8 146.4 889.2 417.6" width="889.2" xmlns="http://www.w3.org/2000/svg"><path d="m0 0h900v600h-900z" fill="#2e0f1f"/><path d="m0 185 21.5 8.2c21.5 8.1 64.5 24.5 107.3 31.3 42.9 6.8 85.5 4.2 128.4 6 42.8 1.8 85.8 8.2 128.6 1 42.9-7.2 85.5-27.8 128.4-35.8 42.8-8 85.8-3.4 128.6 1.3 42.9 4.7 85.5 9.3 128.4-3.2 42.8-12.5 85.8-42.1 107.3-57l21.5-14.8v479h-21.5c-21.5 0-64.5 0-107.3 0-42.9 0-85.5 0-128.4 0-42.8 0-85.8 0-128.6 0-42.9 0-85.5 0-128.4 0-42.8 0-85.8 0-128.6 0-42.9 0-85.5 0-128.4 0-42.8 0-85.8 0-107.3 0h-21.5z" fill="#2e0f1f"/><path d="m0 263 21.5-13.7c21.5-13.6 64.5-41 107.3-41.5 42.9-.5 85.5 25.9 128.4 32.5 42.8 6.7 85.8-6.3 128.6-5.8 42.9.5 85.5 14.5 128.4 11.7 42.8-2.9 85.8-22.5 128.6-18.9 42.9 3.7 85.5 30.7 128.4 23.9 42.8-6.9 85.8-47.5 107.3-67.9l21.5-20.3v438h-21.5c-21.5 0-64.5 0-107.3 0-42.9 0-85.5 0-128.4 0-42.8 0-85.8 0-128.6 0-42.9 0-85.5 0-128.4 0-42.8 0-85.8 0-128.6 0-42.9 0-85.5 0-128.4 0-42.8 0-85.8 0-107.3 0h-21.5z" fill="#41293d"/><path d="m0 320 21.5-7.2c21.5-7.1 64.5-21.5 107.3-39.8 42.9-18.3 85.5-40.7 128.4-40.5 42.8.2 85.8 22.8 128.6 31.5 42.9 8.7 85.5 3.3 128.4 4 42.8.7 85.8 7.3 128.6-.2 42.9-7.5 85.5-29.1 128.4-30 42.8-.8 85.8 19.2 107.3 29.2l21.5 10v324h-21.5c-21.5 0-64.5 0-107.3 0-42.9 0-85.5 0-128.4 0-42.8 0-85.8 0-128.6 0-42.9 0-85.5 0-128.4 0-42.8 0-85.8 0-128.6 0-42.9 0-85.5 0-128.4 0-42.8 0-85.8 0-107.3 0h-21.5z" fill="#53445c"/><path d="m0 362 21.5-2.3c21.5-2.4 64.5-7 107.3-13.5 42.9-6.5 85.5-14.9 128.4-21.4 42.8-6.5 85.8-11.1 128.6-12.8 42.9-1.7 85.5-.3 128.4 7.7 42.8 8 85.8 22.6 128.6 30 42.9 7.3 85.5 7.3 128.4 2.5 42.8-4.9 85.8-14.5 107.3-19.4l21.5-4.8v273h-21.5c-21.5 0-64.5 0-107.3 0-42.9 0-85.5 0-128.4 0-42.8 0-85.8 0-128.6 0-42.9 0-85.5 0-128.4 0-42.8 0-85.8 0-128.6 0-42.9 0-85.5 0-128.4 0-42.8 0-85.8 0-107.3 0h-21.5z" fill="#646179"/><path d="m0 329 21.5 9.8c21.5 9.9 64.5 29.5 107.3 40.9 42.9 11.3 85.5 14.3 128.4 7.5 42.8-6.9 85.8-23.5 128.6-34.5 42.9-11 85.5-16.4 128.4-21.9 42.8-5.5 85.8-11.1 128.6-8.3 42.9 2.8 85.5 14.2 128.4 26.3 42.8 12.2 85.8 25.2 107.3 31.7l21.5 6.5v214h-21.5c-21.5 0-64.5 0-107.3 0-42.9 0-85.5 0-128.4 0-42.8 0-85.8 0-128.6 0-42.9 0-85.5 0-128.4 0-42.8 0-85.8 0-128.6 0-42.9 0-85.5 0-128.4 0-42.8 0-85.8 0-107.3 0h-21.5z" fill="#777f96"/><path d="m0 435 21.5-.5c21.5-.5 64.5-1.5 107.3-10.5 42.9-9 85.5-26 128.4-28.8 42.8-2.9 85.8 8.5 128.6 10.1 42.9 1.7 85.5-6.3 128.4-2.5 42.8 3.9 85.8 19.5 128.6 19.9 42.9.3 85.5-14.7 128.4-16.2 42.8-1.5 85.8 10.5 107.3 16.5l21.5 6v172h-21.5c-21.5 0-64.5 0-107.3 0-42.9 0-85.5 0-128.4 0-42.8 0-85.8 0-128.6 0-42.9 0-85.5 0-128.4 0-42.8 0-85.8 0-128.6 0-42.9 0-85.5 0-128.4 0-42.8 0-85.8 0-107.3 0h-21.5z" fill="#8d9eb1"/><path d="m0 484 21.5-2c21.5-2 64.5-6 107.3-14.7 42.9-8.6 85.5-22 128.4-20.8 42.8 1.2 85.8 16.8 128.6 22.8 42.9 6 85.5 2.4 128.4-5.8 42.8-8.2 85.8-20.8 128.6-26.5 42.9-5.7 85.5-4.3 128.4-.3 42.8 4 85.8 10.6 107.3 14l21.5 3.3v147h-21.5c-21.5 0-64.5 0-107.3 0-42.9 0-85.5 0-128.4 0-42.8 0-85.8 0-128.6 0-42.9 0-85.5 0-128.4 0-42.8 0-85.8 0-128.6 0-42.9 0-85.5 0-128.4 0-42.8 0-85.8 0-107.3 0h-21.5z" fill="#a7bdcb"/><path d="m0 523 21.5-9.2c21.5-9.1 64.5-27.5 107.3-37.1 42.9-9.7 85.5-10.7 128.4-2.7 42.8 8 85.8 25 128.6 31.2 42.9 6.1 85.5 1.5 128.4-2.9 42.8-4.3 85.8-8.3 128.6-8.8 42.9-.5 85.5 2.5 128.4 7.2 42.8 4.6 85.8 11 107.3 14.1l21.5 3.2v83h-21.5c-21.5 0-64.5 0-107.3 0-42.9 0-85.5 0-128.4 0-42.8 0-85.8 0-128.6 0-42.9 0-85.5 0-128.4 0-42.8 0-85.8 0-128.6 0-42.9 0-85.5 0-128.4 0-42.8 0-85.8 0-107.3 0h-21.5z" fill="#c4dce5"/><path d="m0 530h21.5c21.5 0 64.5 0 107.3 2.7 42.9 2.6 85.5 8 128.4 7.3 42.8-.7 85.8-7.3 128.6-9.8 42.9-2.5 85.5-.9 128.4-.5 42.8.3 85.8-.7 128.6-.7 42.9 0 85.5 1 128.4 3.3 42.8 2.4 85.8 6 107.3 7.9l21.5 1.8v59h-21.5c-21.5 0-64.5 0-107.3 0-42.9 0-85.5 0-128.4 0-42.8 0-85.8 0-128.6 0-42.9 0-85.5 0-128.4 0-42.8 0-85.8 0-128.6 0-42.9 0-85.5 0-128.4 0-42.8 0-85.8 0-107.3 0h-21.5z" fill="#e5fcff"/></svg>

<svg version="1.1" xmlns:xlink="http://www.w3.org/1999/xlink" xmlns="http://www.w3.org/2000/svg" viewBox="4.8 146.4 889.2 417.59999999999997" id="visual" style="max-height: 500px" width="889.2" height="417.59999999999997"><rect fill="#2E0F1F" height="600" width="900" y="0" x="0"/><path fill="#2e0f1f" d="M0 185L21.5 193.2C43 201.3 86 217.7 128.8 224.5C171.7 231.3 214.3 228.7 257.2 230.5C300 232.3 343 238.7 385.8 231.5C428.7 224.3 471.3 203.7 514.2 195.7C557 187.7 600 192.3 642.8 197C685.7 201.7 728.3 206.3 771.2 193.8C814 181.3 857 151.7 878.5 136.8L900 122L900 601L878.5 601C857 601 814 601 771.2 601C728.3 601 685.7 601 642.8 601C600 601 557 601 514.2 601C471.3 601 428.7 601 385.8 601C343 601 300 601 257.2 601C214.3 601 171.7 601 128.8 601C86 601 43 601 21.5 601L0 601Z"/><path fill="#41293d" d="M0 263L21.5 249.3C43 235.7 86 208.3 128.8 207.8C171.7 207.3 214.3 233.7 257.2 240.3C300 247 343 234 385.8 234.5C428.7 235 471.3 249 514.2 246.2C557 243.3 600 223.7 642.8 227.3C685.7 231 728.3 258 771.2 251.2C814 244.3 857 203.7 878.5 183.3L900 163L900 601L878.5 601C857 601 814 601 771.2 601C728.3 601 685.7 601 642.8 601C600 601 557 601 514.2 601C471.3 601 428.7 601 385.8 601C343 601 300 601 257.2 601C214.3 601 171.7 601 128.8 601C86 601 43 601 21.5 601L0 601Z"/><path fill="#53445c" d="M0 320L21.5 312.8C43 305.7 86 291.3 128.8 273C171.7 254.7 214.3 232.3 257.2 232.5C300 232.7 343 255.3 385.8 264C428.7 272.7 471.3 267.3 514.2 268C557 268.7 600 275.3 642.8 267.8C685.7 260.3 728.3 238.7 771.2 237.8C814 237 857 257 878.5 267L900 277L900 601L878.5 601C857 601 814 601 771.2 601C728.3 601 685.7 601 642.8 601C600 601 557 601 514.2 601C471.3 601 428.7 601 385.8 601C343 601 300 601 257.2 601C214.3 601 171.7 601 128.8 601C86 601 43 601 21.5 601L0 601Z"/><path fill="#646179" d="M0 362L21.5 359.7C43 357.3 86 352.7 128.8 346.2C171.7 339.7 214.3 331.3 257.2 324.8C300 318.3 343 313.7 385.8 312C428.7 310.3 471.3 311.7 514.2 319.7C557 327.7 600 342.3 642.8 349.7C685.7 357 728.3 357 771.2 352.2C814 347.3 857 337.7 878.5 332.8L900 328L900 601L878.5 601C857 601 814 601 771.2 601C728.3 601 685.7 601 642.8 601C600 601 557 601 514.2 601C471.3 601 428.7 601 385.8 601C343 601 300 601 257.2 601C214.3 601 171.7 601 128.8 601C86 601 43 601 21.5 601L0 601Z"/><path fill="#777f96" d="M0 329L21.5 338.8C43 348.7 86 368.3 128.8 379.7C171.7 391 214.3 394 257.2 387.2C300 380.3 343 363.7 385.8 352.7C428.7 341.7 471.3 336.3 514.2 330.8C557 325.3 600 319.7 642.8 322.5C685.7 325.3 728.3 336.7 771.2 348.8C814 361 857 374 878.5 380.5L900 387L900 601L878.5 601C857 601 814 601 771.2 601C728.3 601 685.7 601 642.8 601C600 601 557 601 514.2 601C471.3 601 428.7 601 385.8 601C343 601 300 601 257.2 601C214.3 601 171.7 601 128.8 601C86 601 43 601 21.5 601L0 601Z"/><path fill="#8d9eb1" d="M0 435L21.5 434.5C43 434 86 433 128.8 424C171.7 415 214.3 398 257.2 395.2C300 392.3 343 403.7 385.8 405.3C428.7 407 471.3 399 514.2 402.8C557 406.7 600 422.3 642.8 422.7C685.7 423 728.3 408 771.2 406.5C814 405 857 417 878.5 423L900 429L900 601L878.5 601C857 601 814 601 771.2 601C728.3 601 685.7 601 642.8 601C600 601 557 601 514.2 601C471.3 601 428.7 601 385.8 601C343 601 300 601 257.2 601C214.3 601 171.7 601 128.8 601C86 601 43 601 21.5 601L0 601Z"/><path fill="#a7bdcb" d="M0 484L21.5 482C43 480 86 476 128.8 467.3C171.7 458.7 214.3 445.3 257.2 446.5C300 447.7 343 463.3 385.8 469.3C428.7 475.3 471.3 471.7 514.2 463.5C557 455.3 600 442.7 642.8 437C685.7 431.3 728.3 432.7 771.2 436.7C814 440.7 857 447.3 878.5 450.7L900 454L900 601L878.5 601C857 601 814 601 771.2 601C728.3 601 685.7 601 642.8 601C600 601 557 601 514.2 601C471.3 601 428.7 601 385.8 601C343 601 300 601 257.2 601C214.3 601 171.7 601 128.8 601C86 601 43 601 21.5 601L0 601Z"/><path fill="#c4dce5" d="M0 523L21.5 513.8C43 504.7 86 486.3 128.8 476.7C171.7 467 214.3 466 257.2 474C300 482 343 499 385.8 505.2C428.7 511.3 471.3 506.7 514.2 502.3C557 498 600 494 642.8 493.5C685.7 493 728.3 496 771.2 500.7C814 505.3 857 511.7 878.5 514.8L900 518L900 601L878.5 601C857 601 814 601 771.2 601C728.3 601 685.7 601 642.8 601C600 601 557 601 514.2 601C471.3 601 428.7 601 385.8 601C343 601 300 601 257.2 601C214.3 601 171.7 601 128.8 601C86 601 43 601 21.5 601L0 601Z"/><path fill="#e5fcff" d="M0 530L21.5 530C43 530 86 530 128.8 532.7C171.7 535.3 214.3 540.7 257.2 540C300 539.3 343 532.7 385.8 530.2C428.7 527.7 471.3 529.3 514.2 529.7C557 530 600 529 642.8 529C685.7 529 728.3 530 771.2 532.3C814 534.7 857 538.3 878.5 540.2L900 542L900 601L878.5 601C857 601 814 601 771.2 601C728.3 601 685.7 601 642.8 601C600 601 557 601 514.2 601C471.3 601 428.7 601 385.8 601C343 601 300 601 257.2 601C214.3 601 171.7 601 128.8 601C86 601 43 601 21.5 601L0 601Z"/></svg>
